packages/calcite-ui-icons/icons/learning-gis-workflow-16.svg

<?xml version="1.0" encoding="UTF-8"?><svg id="icons" xmlns="http://www.w3.org/2000/svg" viewBox="0 0 16 16"><defs><style>.cls-1{fill:none;}</style></defs><path d="M8.06519,5.76965c-.29584.16638-.57666.3559-.83875.5683-.07483-.09393-.14264-.19385-.22644-.27966v-1.29651c.409.27441.76569.61816,1.06519,1.00787ZM11,10h1v1h1v-2h-2v1ZM14,1v1h2v-1h-2ZM14,4h2v-1h-2v1ZM3.5,7c.82843,0,1.5.67157,1.5,1.5s-.67157,1.5-1.5,1.5-1.5-.67157-1.5-1.5.67157-1.5,1.5-1.5ZM4,8h-1v1h1v-1ZM16,11c0,2.75684-2.24316,5-5,5-1.62689,0-3.06079-.79303-3.97443-2h1.35645c.70343.61462,1.61243,1,2.61798,1,.37946,0,.73938-.07007,1.0874-.16919-.01776-.06396-.10724-.36823-.57275-.83374-.65859-.65491-1.2688-.50341-1.59375-2.45312-.0625-.37207-.24023-.71484-.51465-.99121-.29154-.29701-1.34256-.28057-2.23468-.63739-.00824.02899-.02203.05542-.0296.08466h-1.04089c.46466-2.2793,2.4845-4,4.89893-4,2.75684,0,5,2.24316,5,5ZM15,11c0-2.20605-1.79395-4-4-4-1.47229,0-2.74231.80908-3.43311,1.99799.83836.32952,1.94662.23855,2.55127.8526.41797.42188.69141.95117.78906,1.52832.25132,1.51356.50787,1.10792,1.31445,1.91113.47791.47791.68201.87164.77997,1.15283,1.18896-.69403,1.99835-1.96936,1.99835-3.44287ZM5.4707,10.42773l-.66797.74414.92084.82812s-1.0246.018-1.22357.018c-1.92969,0-3.5-1.58831-3.5-3.518,0-.94995.38336-1.81042,1-2.44171v-1.29651C.79529,5.57007.009,6.9433.009,8.5.009,10.98145,2.01855,12.973,4.5,12.973l1.19666.027-.89978.83301.67969.73438,2.26562-2.09668-2.27148-2.04297ZM4.5293,6.24219l-2.09668-2.26562.73438-.67969.83301.89978v-.19666C4,1.79395,5.79395,0,8,0c1.10016,0,2.0918.45148,2.81506,1.17273.20618-.10669.43677-.17273.68494-.17273.82843,0,1.5.67157,1.5,1.5,0,.65546-.42316,1.20685-1.00903,1.41095.03658.31058-.05428.78638-.13293,1.08905h-1.0423c.11346-.31827.21777-.78782.17468-1.09479-.57635-.20929-.99042-.75659-.99042-1.40521,0-.21143.04468-.41205.1236-.59448-.49896-.50677-1.17072-.8288-1.92371-.88-.18268.78418-.21014,1.42603-.2243,1.99304-.01068.40118-.02423.62036-.09772.98145-.28552-.22955-.54993-.42358-.87787-.59326.01227-.17151.01819-.19891.02368-.41455.01379-.51263-.01794-1.12024.12195-1.85321-1.23639.37067-2.14563,1.50555-2.14563,2.86102v.22357l.82812-.92084.74414.66797-2.04297,2.27148ZM11,3h1v-1h-1v1Z"/><rect class="cls-1" width="16" height="16"/></svg>

<svg xmlns="http://www.w3.org/2000/svg" viewBox="0 0 16 16"><path fill="none" d="M.009 0H16v16H.009z"/><path d="M8.065 5.77a6.01 6.01 0 0 0-.839.568c-.074-.094-.142-.194-.226-.28V4.762c.409.274.766.618 1.065 1.008zM11 10h1v1h1V9h-2v1zm3-9v1h2V1h-2zm0 3h2V3h-2v1zM3.5 7a1.5 1.5 0 1 1 0 3 1.5 1.5 0 0 1 0-3zM4 8H3v1h1V8zm12 3c0 2.757-2.243 5-5 5-1.627 0-3.06-.793-3.974-2h1.356c.703.615 1.612 1 2.618 1 .38 0 .74-.07 1.087-.17-.017-.063-.107-.367-.572-.833-.175-.174-.331-.28-.47-.376-.547-.378-.896-.706-1.124-2.077a1.834 1.834 0 0 0-.515-.991c-.156-.16-.545-.23-.887-.294a7.824 7.824 0 0 1-.443-.091l-.201-.043a3.555 3.555 0 0 1-.703-.21c-.009.03-.022.056-.03.085h-1.04C6.565 7.72 8.585 6 11 6c2.757 0 5 2.243 5 5zm-1 0c0-2.206-1.794-4-4-4-1.472 0-2.742.81-3.433 1.998.226.089.354.117.502.146.076.015.155.03.246.053.12.03.251.054.384.078.488.09 1.042.193 1.42.576.417.421.69.95.788 1.528.175 1.053.353 1.175.706 1.419.167.115.375.26.609.492.478.478.682.872.78 1.153C14.19 13.749 15 12.473 15 11zm-9.53-.572l-.667.744.92.828s-1.024.018-1.223.018C2.57 12.018 1 10.43 1 8.5c0-.95.383-1.81 1-2.442V4.762A4.49 4.49 0 0 0 .009 8.5 4.474 4.474 0 0 0 4.5 12.973L5.697 13l-.9.833.68.734 2.265-2.096-2.271-2.043zm-.94-4.186L2.432 3.977l.734-.68.833.9V4c0-2.206 1.794-4 4-4 1.1 0 2.092.451 2.815 1.173A1.48 1.48 0 0 1 11.499 1a1.495 1.495 0 0 1 .491 2.91c.003.03.009.06.009.09 0 .347-.058.678-.142 1h-1.042c.112-.314.184-.648.184-1 0-.032-.005-.063-.01-.095a1.496 1.496 0 0 1-.866-2 2.966 2.966 0 0 0-1.924-.88c-.183.785-.21 1.427-.224 1.994-.011.4-.025.62-.098.981A5.115 5.115 0 0 0 7 3.407c.012-.172.018-.2.024-.415.013-.512-.018-1.12.122-1.853A2.994 2.994 0 0 0 5 4v.224l.828-.921.744.668L4.53 6.242zM11 3h1V2h-1v1z"/></svg>
